X: 1
T: Drummore Lasses
M: 9/8
L: 1/8
R: slip jig
K: Dmix
|: B | A2 A AFD FED | ABA AF/E/D G2 B | A2 A AF/E/D FED | c2 B cAF G2 :|
|: F | G2 c BdB AFD | B/c/dB cAG F2 D | G2 c B/c/dB AFD | c2 B cAF G2 :|
